X:1
T:James Gibb editions
T:Gioia ch'avanzi - Antonelli da Rimini
%%score [ 1 2 3 ]
L:1/8
Q:1/4=120
M:2/2
K:C
V:1 treble-8 nm="Tenor I" snm="T I"
V:2 treble-8 nm="Tenor II" snm="T II"
V:3 bass nm="Bass" snm="B"
V:1
"^Gioia ch'avanzi""^Cornelio Antonelli da Rimini\n( C16th)" z2 e2 e2 e2 | e2 e2 e4 | f4 e2 e2 | %3
w: Gio- ia ch'a-|van- zi tan-|to di bel-|
w: Se n'o- re-|fi- ce an-|das- se~~a lo|
 d4 c4 |[M:2/2][K:treble-8] d4 c2 B2 | d4 B4 | z2 d2 d2 d2 | d2 d2 d4 | f4 e2 e2 | d4 c4 | %10
w: lez- za,|o di bel-|lez- za|Le per- le,|li co- ral-|li~~e li dia-|man- ti,|
w: le- van-|te, lo le-|van- te|E cer- cas-|se le gio-|ie di Tur-|chi- a|
 z2 c2 c2 c2 | c2 c2 c4 | A4 B2 c2 | B4 !fermata!^c4 :| %14
w: Quant' io pas-|so di guai|tut- ti li~~a-|man- ti.|
w: Na' gio- ia|co- me voi|mai tro- va-|ri- a.|
V:2
 z2 c2 c2 c2 | c2 c2 c4 | d4 c2 c2 | B4 G4 |[M:2/2][K:treble-8] B4 A2 G2 | (A2 ^F2) G4 | %6
w: Gio- ia ch'a-|van- zi tan-|to di bel-|lez- za,|o di bel-|lez\- * za|
w: Se n'o- re-|fi- ce an-|das- se~~a lo|le- van-|te, lo le-|van\- * te|
 z2 B2 B2 B2 | B2 B2 B4 | d4 c2 c2 | B4 G4 | z2 A2 A2 A2 | A2 A2 A4 | A4 ^G2 A2 | %13
w: Le per- le,|li co- ral-|li~~e li dia-|man- ti|Quant' io pas-|so di guai|tut- ti li~~a-|
w: E cer- cas-|se le gio-|ie di Tur-|chi- a|Na' gio- ia|co- me voi|mai tro- va-|
 ^G4 !fermata!A4 :| %14
w: man- ti.|
w: ri- a.|
V:3
 z2 A,2 A,2 A,2 | A,2 A,2 A,4 | D,4 A,2 A,2 | G,4 C,4 |[M:2/2] G,4 F,2 E,2 | D,4 G,,4 | %6
w: Gio- ia ch'a-|van- zi tan-|to di bel-|lez- za,|o di bel-|lez- za|
w: Se n'o- re-|fi- ce an-|das- se~~a lo|le- van-|te, lo le-|van- te|
 z2 G,2 G,2 G,2 | G,2 G,2 G,4 | D,4 A,2 A,2 | G,4 C,4 | z2 F,2 F,2 F,2 | F,2 F,2 F,4 | %12
w: Le per- le,|li co- ral-|li~~e li dia-|man- ti|Quant' io pas-|so di guai|
w: E cer- cas-|se le gio-|ie di Tur-|chi- a|Na' gio- ia|co- me voi|
 D,4 E,2 F,2 | E,4 !fermata!A,,4 :| %14
w: tut- ti li~~a-|man- ti.|
w: mai tro- va-|ri- a.|

